app/dist/common/images/pro-dv-ag-hrb.svg

<svg height="18" viewBox="0 0 18 18" width="18" xmlns="http://www.w3.org/2000/svg"><path d="m0 0h18v18h-18z" fill="#f0f3fa"/><path d="m5.48 12-1.48-4.86c-.27-.81-.34-.81-1-.94v-.2h1.6l1.48 4.89.12 1.11z" fill="#263d83"/><path d="m7.82 6h.56l-2.16 6h-.55zm.86 0h.86l-2.14 6h-.86l2.15-6z" fill="#018e6e"/><path d="m9.8 6h1.12l-2.16 6h-1.11z" fill="#263d83"/><path d="m11.15 6h1.38l-2.15 6h-1.38zm1.7 0h2.15l-2.15 6h-2.15z" fill="#018e6e"/></svg>

<!-- by TradingView --><svg width="18" height="18" viewBox="0 0 18 18" xmlns="http://www.w3.org/2000/svg"><path fill="#F0F3FA" d="M0 0h18v18H0z"/><path d="M5.48 12 4 7.14c-.27-.81-.34-.81-1-.94V6h1.6l1.48 4.89L6.2 12h-.72Z" fill="#263D83"/><path d="M7.82 6h.56l-2.16 6h-.55l2.15-6ZM8.68 6h.86L7.4 12h-.86l2.15-6Z" fill="#018E6E"/><path d="M9.8 6h1.12l-2.16 6H7.65L9.8 6Z" fill="#263D83"/><path d="M11.15 6h1.38l-2.15 6H9l2.15-6ZM12.85 6H15l-2.15 6H10.7l2.15-6Z" fill="#018E6E"/></svg>
